svgs/1F629.svg

<svg xmlns="http://www.w3.org/2000/svg" xmlns:xlink="http://www.w3.org/1999/xlink" preserveAspectRatio="none" viewBox="0 0 72 72"><defs><path id="a" fill="#FCC21B" d="M35.85 4.85q-22.3 0-31.05 20.65Q0 36.75 0 51.95q0 5.85 10.5 9.95 10.5 4.15 25.35 4.15 14.9 0 25.4-4.15 10.5-4.1 10.5-9.95 0-15.2-4.8-26.45Q58.2 4.85 35.85 4.85z"/><path id="b" fill="#2F2F2F" d="M96.15 52.4q-.85 1.35-2.45 2.55-3.1 2.4-7.25 2.4-4.1 0-7.25-2.4-2.35-2.45-2.45-2.6-.75-1.3-2.3-1.3-.7 0-1.4.4-.95.55-1.25 1.65-.3 1.1.25 2.05.1.15 3.6 3.95 4.7 3.7 10.8 3.7 6.15 0 10.8-3.7 2.35-1.85 3.6-3.95.55-.95.25-2.05-.25-1.05-1.25-1.65-.95-.55-2.05-.3-1.1.3-1.65 1.25z"/><path id="c" fill="#2F2F2F" d="M28.1 51.45q-.95.55-1.25 1.65-.3 1.1.25 2.05.1.2 3.6 3.95 4.65 3.7 10.8 3.7t10.8-3.7q2.85-2.25 3.55-3.95.6-.95.3-2.05-.25-1.1-1.25-1.65-.95-.6-2.05-.3-1.1.25-1.65 1.25-.75 1.25-2.35 2.5-3.15 2.45-7.35 2.45-4.15 0-7.25-2.4-2.35-2.45-2.4-2.55-.85-1.35-2.4-1.35-.65 0-1.35.4z"/><path id="d" fill="#ED6C30" d="M97.65 76.15q1.7-5.9-1.2-7.85-2-1.35-5.1-1.05Q91 67.3 86 68.3q-10.05 2.05-22 2.05-12 0-22.05-2.05-5-1-5.35-1.05-3.1-.3-5.1 1.05-2.9 1.95-1.2 7.85Q32 82 36.65 86.85q4.2 4.35 9.55 7.15 8.1 4.25 17.8 4.25 9.65 0 17.75-4.25 5.35-2.8 9.55-7.15Q96 82 97.65 76.15z"/><path id="e" fill="none" stroke="#2F2F2F" stroke-linecap="round" stroke-linejoin="round" stroke-width="3" d="M56.45 25.1L55.3 25q-4-.35-5.5-1.85-1.15-1.4-1.65-2.45M15.9 25.1q4.9-.2 6.65-1.95 1.15-1.4 1.65-2.45"/></defs><use xlink:href="#a"/><use transform="rotate(10 62.336 37.742) scale(.53977)" xlink:href="#b"/><use transform="rotate(-10 8.302 20.308) scale(.53977)" xlink:href="#c"/><use transform="matrix(-.53206 0 0 -.61676 70.05 94.95)" xlink:href="#d"/><use transform="translate(-.15 -5.1)" xlink:href="#e"/></svg>

<svg xmlns="http://www.w3.org/2000/svg" version="1.1" xmlns:xlink="http://www.w3.org/1999/xlink" preserveAspectRatio="none" x="0px" y="0px" width="72px" height="72px" viewBox="0 0 72 72">
<defs>
<g id="Layer0_0_FILL">
<path fill="#FCC21B" stroke="none" d="
M 35.85 4.85
Q 13.55 4.85 4.8 25.5 0 36.75 0 51.95 0 57.8 10.5 61.9 21 66.05 35.85 66.05 50.75 66.05 61.25 61.9 71.75 57.8 71.75 51.95 71.75 36.75 66.95 25.5 58.2 4.85 35.85 4.85 Z"/>
</g>

<g id="Layer0_1_MEMBER_0_FILL">
<path fill="#2F2F2F" stroke="none" d="
M 96.15 52.4
Q 95.3 53.75 93.7 54.95 90.6 57.35 86.45 57.35 82.35 57.35 79.2 54.95 76.85 52.5 76.75 52.35 76 51.05 74.45 51.05 73.75 51.05 73.05 51.45 72.1 52 71.8 53.1 71.5 54.2 72.05 55.15 72.15 55.3 75.65 59.1 80.35 62.8 86.45 62.8 92.6 62.8 97.25 59.1 99.6 57.25 100.85 55.15 101.4 54.2 101.1 53.1 100.85 52.05 99.85 51.45 98.9 50.9 97.8 51.15 96.7 51.45 96.15 52.4 Z"/>
</g>

<g id="Layer0_1_MEMBER_1_FILL">
<path fill="#2F2F2F" stroke="none" d="
M 28.1 51.45
Q 27.15 52 26.85 53.1 26.55 54.2 27.1 55.15 27.2 55.35 30.7 59.1 35.35 62.8 41.5 62.8 47.65 62.8 52.3 59.1 55.15 56.85 55.85 55.15 56.45 54.2 56.15 53.1 55.9 52 54.9 51.45 53.95 50.85 52.85 51.15 51.75 51.4 51.2 52.4 50.45 53.65 48.85 54.9 45.7 57.35 41.5 57.35 37.35 57.35 34.25 54.95 31.9 52.5 31.85 52.4 31 51.05 29.45 51.05 28.8 51.05 28.1 51.45 Z"/>
</g>

<g id="Layer0_2_FILL">
<path fill="#ED6C30" stroke="none" d="
M 97.65 76.15
Q 99.35 70.25 96.45 68.3 94.45 66.95 91.35 67.25 91 67.3 86 68.3 75.95 70.35 64 70.35 52 70.35 41.95 68.3 36.95 67.3 36.6 67.25 33.5 66.95 31.5 68.3 28.6 70.25 30.3 76.15 32 82 36.65 86.85 40.85 91.2 46.2 94 54.3 98.25 64 98.25 73.65 98.25 81.75 94 87.1 91.2 91.3 86.85 96 82 97.65 76.15 Z"/>
</g>

<path id="Layer0_3_1_STROKES" stroke="#2F2F2F" stroke-width="3" stroke-linejoin="round" stroke-linecap="round" fill="none" d="
M 56.45 25.1
L 55.3 25
Q 51.3 24.65 49.8 23.15 48.65 21.75 48.15 20.7
M 15.9 25.1
Q 20.8 24.9 22.55 23.15 23.7 21.75 24.2 20.7"/>
</defs>

<g id="Layer_1">
<g transform="matrix( 1, 0, 0, 1, 0,0) ">
<use xlink:href="#Layer0_0_FILL"/>
</g>

<g transform="matrix( 0.5315704345703125, 0.093719482421875, -0.093719482421875, 0.5315704345703125, 7.5,-10.25) ">
<use xlink:href="#Layer0_1_MEMBER_0_FILL"/>
</g>

<g transform="matrix( 0.5315704345703125, -0.093719482421875, 0.093719482421875, 0.5315704345703125, -3.4,1.75) ">
<use xlink:href="#Layer0_1_MEMBER_1_FILL"/>
</g>

<g transform="matrix( -0.5320587158203125, 0, 0, -0.61676025390625, 70.05,94.95) ">
<use xlink:href="#Layer0_2_FILL"/>
</g>

<g transform="matrix( 1, 0, 0, 1, -0.15,-5.1) ">
<use xlink:href="#Layer0_3_1_STROKES"/>
</g>
</g>
</svg>
